src/status/32/audio-input-microphone-muted-panel.svg

<svg xmlns="http://www.w3.org/2000/svg" xmlns:xlink="http://www.w3.org/1999/xlink" width="32" height="32" viewBox="0 0 32 32" version="1.1">
<defs>
<filter id="alpha" filterUnits="objectBoundingBox" x="0%" y="0%" width="100%" height="100%">
  <feColorMatrix type="matrix" in="SourceGraphic" values="0 0 0 0 1 0 0 0 0 1 0 0 0 0 1 0 0 0 1 0"/>
</filter>
<mask id="mask0">
  <g filter="url(#alpha)">
<rect x="0" y="0" width="32" height="32" style="fill:rgb(0%,0%,0%);fill-opacity:0.4;stroke:none;"/>
  </g>
</mask>
<clipPath id="clip1">
  <rect x="0" y="0" width="32" height="32"/>
</clipPath>
<g id="surface5" clip-path="url(#clip1)">
<path style=" stroke:none;fill-rule:nonzero;fill:rgb(18.039216%,20.392157%,25.098041%);fill-opacity:1;" d="M 20.800781 16.730469 C 20.835938 16.496094 20.851562 16.257812 20.851562 16.015625 L 20.851562 7.820312 C 20.851562 5.109375 18.679688 2.90625 16 2.90625 C 13.554688 2.90625 11.527344 4.753906 11.203125 7.144531 "/>
<path style=" stroke:none;fill-rule:nonzero;fill:rgb(18.039216%,20.392157%,25.098041%);fill-opacity:1;" d="M 19.171875 19.730469 C 19.238281 19.671875 19.304688 19.609375 19.371094 19.546875 "/>
<path style=" stroke:none;fill-rule:nonzero;fill:rgb(18.039216%,20.392157%,25.098041%);fill-opacity:1;" d="M 11.15625 15.953125 L 11.15625 16.015625 C 11.15625 18.726562 13.328125 20.921875 16.003906 20.921875 C 16.039062 20.921875 16.078125 20.921875 16.117188 20.921875 "/>
<path style=" stroke:none;fill-rule:nonzero;fill:rgb(18.039216%,20.392157%,25.098041%);fill-opacity:1;" d="M 17.550781 22.355469 C 17.050781 22.480469 16.527344 22.546875 15.988281 22.546875 C 12.421875 22.546875 9.53125 19.617188 9.53125 16 L 6.308594 16 C 6.308594 20.867188 9.800781 24.890625 14.386719 25.664062 L 14.386719 27.453125 L 12.769531 27.453125 L 12.769531 29.09375 L 19.230469 29.09375 L 19.230469 27.453125 L 17.613281 27.453125 L 17.613281 25.664062 C 18.484375 25.515625 19.316406 25.253906 20.09375 24.886719 "/>
<path style=" stroke:none;fill-rule:nonzero;fill:rgb(18.039216%,20.392157%,25.098041%);fill-opacity:1;" d="M 20.507812 20.683594 C 20.445312 20.746094 20.378906 20.808594 20.3125 20.871094 "/>
<path style=" stroke:none;fill-rule:nonzero;fill:rgb(18.039216%,20.392157%,25.098041%);fill-opacity:1;" d="M 24.601562 20.53125 C 25.296875 19.179688 25.691406 17.636719 25.691406 16 L 22.457031 16 C 22.457031 16.722656 22.34375 17.414062 22.128906 18.0625 "/>
<path style=" stroke:none;fill-rule:nonzero;fill:rgb(18.039216%,20.392157%,25.098041%);fill-opacity:1;" d="M 22.804688 22.984375 C 22.808594 22.984375 22.808594 22.984375 22.808594 22.980469 "/>
<path style=" stroke:none;fill-rule:nonzero;fill:rgb(18.039216%,20.392157%,25.098041%);fill-opacity:1;" d="M 22.613281 23.171875 C 22.679688 23.109375 22.742188 23.046875 22.808594 22.984375 "/>
<path style=" stroke:none;fill-rule:nonzero;fill:rgb(18.039216%,20.392157%,25.098041%);fill-opacity:1;" d="M 4.054688 6.734375 L 6.363281 4.421875 L 28.074219 26.132812 L 25.761719 28.445312 Z M 4.054688 6.734375 "/>
</g>
</defs>
<g id="surface1">
<use xlink:href="#surface5" mask="url(#mask0)"/>
</g>
</svg>

<svg width="32" height="32" version="1.1" viewBox="0 0 32 32" xmlns="http://www.w3.org/2000/svg">
 <filter id="alpha" x="0" y="0" width="1" height="1">
  <feColorMatrix in="SourceGraphic" values="0 0 0 0 1 0 0 0 0 1 0 0 0 0 1 0 0 0 1 0"/>
 </filter>
 <mask>
  <g filter="url(#alpha)">
   <rect width="32" height="32" fill-opacity=".4"/>
  </g>
 </mask>
 <clipPath id="clip1">
  <rect width="32" height="32"/>
 </clipPath>
 <g clip-path="url(#clip1)" fill="#eceff4">
  <path d="m20.801 16.73c0.035157-0.23438 0.050781-0.47266 0.050781-0.71484v-8.1953c0-2.7109-2.1719-4.9141-4.8516-4.9141-2.4453 0-4.4727 1.8477-4.7969 4.2383"/>
  <path d="m19.172 19.73c0.066406-0.058594 0.13281-0.12109 0.19922-0.18359"/>
  <path d="m11.156 15.953v0.0625c0 2.7109 2.1719 4.9062 4.8477 4.9062h0.11328"/>
  <path d="m17.551 22.355c-0.5 0.125-1.0234 0.19141-1.5625 0.19141-3.5664 0-6.457-2.9297-6.457-6.5469h-3.2227c0 4.8672 3.4922 8.8906 8.0781 9.6641v1.7891h-1.6172v1.6406h6.4609v-1.6406h-1.6172v-1.7891c0.87109-0.14844 1.7031-0.41016 2.4805-0.77734"/>
  <path d="m20.508 20.684c-0.0625 0.0625-0.12891 0.125-0.19531 0.1875"/>
  <path d="m24.602 20.531c0.69531-1.3516 1.0898-2.8945 1.0898-4.5312h-3.2344c0 0.72266-0.11328 1.4141-0.32812 2.0625"/>
  <path d="m22.805 22.984c0.003906 0 0.003906 0 0.003906-0.003906"/>
  <path d="m22.613 23.172c0.066407-0.0625 0.12891-0.125 0.19531-0.1875"/>
  <path d="m4.0547 6.7344 2.3086-2.3125 21.711 21.711-2.3125 2.3125z"/>
 </g>
</svg>
